dist/img/hero/tg.svg

<svg width="30" height="30" viewBox="0 0 30 30" fill="none" xmlns="http://www.w3.org/2000/svg">
<path d="M15 0.46875C6.97219 0.46875 0.46875 6.97312 0.46875 15C0.46875 23.0269 6.97312 29.5312 15 29.5312C23.0278 29.5312 29.5312 23.0269 29.5312 15C29.5312 6.97312 23.0269 0.46875 15 0.46875ZM22.1372 10.4241L19.7522 21.6628C19.5759 22.4597 19.1016 22.6528 18.4397 22.2778L14.8069 19.6003L13.0547 21.2878C12.8616 21.4809 12.6975 21.645 12.3225 21.645L12.5803 17.9475L19.3125 11.865C19.6059 11.6072 19.2478 11.4609 18.8606 11.7188L10.5403 16.9566L6.95438 15.8372C6.17531 15.5916 6.1575 15.0581 7.11844 14.6831L21.1284 9.28031C21.7791 9.04594 22.3472 9.43875 22.1362 10.4231L22.1372 10.4241Z" fill="black"/>
</svg>

<svg width="30" height="30" fill="none" xmlns="http://www.w3.org/2000/svg"><path d="M15 .469C6.972.469.469 6.973.469 15c0 8.027 6.504 14.531 14.531 14.531 8.028 0 14.531-6.504 14.531-14.531C29.531 6.973 23.027.469 15 .469zm7.137 9.955l-2.385 11.239c-.176.797-.65.99-1.312.615L14.807 19.6l-1.752 1.688c-.193.193-.357.357-.732.357l.257-3.697 6.732-6.083c.294-.258-.064-.404-.451-.146l-8.32 5.238-3.587-1.12c-.779-.245-.796-.779.164-1.154l14.01-5.403c.651-.234 1.22.159 1.008 1.143l.001.001z" fill="#000"/></svg>
